svgs/duotone/book-copy.svg

<svg xmlns="http://www.w3.org/2000/svg" viewBox="0 0 576 512"><!--! Font Awesome Pro 6.6.0 by @fontawesome - https://fontawesome.com License - https://fontawesome.com/license (Commercial License) Copyright 2024 Fonticons, Inc. --><defs><style>.fa-secondary{opacity:.4}</style></defs><path class="fa-secondary" d="M0 192L0 416c0 53 43 96 96 96l224 0 32 0c17.7 0 32-14.3 32-32s-14.3-32-32-32l-32 0-48 0L96 448c-17.7 0-32-14.3-32-32s14.3-32 32-32l74.8 0c-6.9-14.5-10.8-30.8-10.8-48l0-240L96 96C43 96 0 139 0 192z"/><path class="fa-primary" d="M288 0c-53 0-96 43-96 96l0 224c0 53 43 96 96 96l224 0 32 0c17.7 0 32-14.3 32-32s-14.3-32-32-32l0-64c17.7 0 32-14.3 32-32l0-224c0-17.7-14.3-32-32-32L512 0 288 0zm0 288l192 0 0 64-192 0c-17.7 0-32-14.3-32-32s14.3-32 32-32z"/></svg>

<svg xmlns="http://www.w3.org/2000/svg" viewBox="0 0 576 512"><!--! Font Awesome Pro 6.5.2 by @fontawesome - https://fontawesome.com License - https://fontawesome.com/license (Commercial License) Copyright 2024 Fonticons, Inc. --><defs><style>.fa-secondary{opacity:.4}</style></defs><path class="fa-secondary" d="M160 96H96C43 96 0 139 0 192V416c0 53 43 96 96 96H320h32c17.7 0 32-14.3 32-32s-14.3-32-32-32H320 272 96c-17.7 0-32-14.3-32-32s14.3-32 32-32h74.8c-6.9-14.5-10.8-30.8-10.8-48V96z"/><path class="fa-primary" d="M288 0c-53 0-96 43-96 96V320c0 53 43 96 96 96H512h32c17.7 0 32-14.3 32-32s-14.3-32-32-32V288c17.7 0 32-14.3 32-32V32c0-17.7-14.3-32-32-32H512 288zm0 288H480v64H288c-17.7 0-32-14.3-32-32s14.3-32 32-32z"/></svg>
